src/icons/main-setup.svg

<?xml version="1.0" encoding="UTF-8"?>
<svg width="14px" height="14px" viewBox="0 0 14 14" version="1.1" xmlns="http://www.w3.org/2000/svg" xmlns:xlink="http://www.w3.org/1999/xlink">
    <!-- Generator: Sketch 59 (86127) - https://sketch.com -->
    <title>HDL/Icon/Standard/setup</title>
    <desc>Created with Sketch.</desc>
    <g id="Colors" stroke="none" stroke-width="1" fill="none" fill-rule="evenodd">
        <g id="Main-Icons" transform="translate(-122.000000, -595.000000)" fill="#4D5969">
            <g id="Setup" transform="translate(101.000000, 577.000000)">
                <g id="HDL/Icon/Standard/setup" transform="translate(21.000000, 18.000000)">
                    <path d="M13.3,5.6 L11.683,5.6 C11.585,5.278 11.452,4.977 11.291,4.69 L12.481,3.5 C12.754,3.227 12.754,2.786 12.481,2.513 L11.494,1.526 C11.221,1.253 10.78,1.253 10.507,1.526 L9.317,2.716 C9.03,2.562 8.729,2.429 8.407,2.331 L8.407,0.7 C8.407,0.315 8.092,0 7.707,0 L6.3,0 C5.915,0 5.6,0.315 5.6,0.7 L5.6,2.331 C5.264,2.429 4.942,2.569 4.641,2.737 L3.5,1.596 C3.241,1.337 2.814,1.337 2.548,1.596 L1.596,2.548 C1.337,2.814 1.337,3.241 1.596,3.5 L2.73,4.634 C2.562,4.942 2.422,5.257 2.317,5.6 L0.7,5.6 C0.315,5.6 0,5.915 0,6.3 L0,7.7 C0,8.085 0.315,8.4 0.7,8.4 L2.317,8.4 C2.415,8.722 2.548,9.023 2.709,9.31 L1.519,10.5 C1.246,10.773 1.246,11.214 1.519,11.487 L2.506,12.474 C2.779,12.747 3.22,12.747 3.493,12.474 L4.683,11.284 C4.97,11.438 5.271,11.571 5.593,11.669 L5.593,13.3 C5.593,13.685 5.908,14 6.293,14 L7.693,14 C8.078,14 8.393,13.685 8.393,13.3 L8.393,11.669 C8.729,11.571 9.051,11.424 9.352,11.256 L10.5,12.404 C10.759,12.663 11.186,12.663 11.452,12.404 L12.404,11.452 C12.663,11.193 12.663,10.766 12.404,10.5 L11.27,9.366 C11.438,9.065 11.585,8.743 11.69,8.4 L13.3,8.4 C13.685,8.4 14,8.085 14,7.7 L14,6.3 C14,5.915 13.685,5.6 13.3,5.6 Z M7,9.8 C5.453,9.8 4.2,8.547 4.2,7 C4.2,5.453 5.453,4.2 7,4.2 C8.547,4.2 9.8,5.453 9.8,7 C9.8,8.547 8.547,9.8 7,9.8 Z" id="Shape"></path>
                </g>
            </g>
        </g>
    </g>
</svg>

<?xml version="1.0" encoding="utf-8"?>
<!-- Generator: Adobe Illustrator 20.1.0, SVG Export Plug-In . SVG Version: 6.00 Build 0)  -->
<svg version="1.1" id="Layer_1" xmlns="http://www.w3.org/2000/svg" xmlns:xlink="http://www.w3.org/1999/xlink" x="0px" y="0px"
	 viewBox="0 0 14 14" style="enable-background:new 0 0 14 14;" xml:space="preserve">
<style type="text/css">
	.st0{fill:#4D5969;}
</style>
<title>HDL/Icon/Standard/setup</title>
<desc>Created with Sketch.</desc>
<g id="Colors">
	<g id="Main-Icons" transform="translate(-122.000000, -595.000000)">
		<g id="Setup" transform="translate(101.000000, 577.000000)">
			<g id="HDL_x2F_Icon_x2F_Standard_x2F_setup" transform="translate(21.000000, 18.000000)">
				<path id="Shape" class="st0" d="M13.3,5.6h-1.6c-0.1-0.3-0.2-0.6-0.4-0.9l1.2-1.2c0.3-0.3,0.3-0.7,0-1l-1-1
					c-0.3-0.3-0.7-0.3-1,0L9.3,2.7C9,2.6,8.7,2.4,8.4,2.3V0.7C8.4,0.3,8.1,0,7.7,0H6.3C5.9,0,5.6,0.3,5.6,0.7v1.6
					c-0.3,0.1-0.7,0.2-1,0.4L3.5,1.6c-0.3-0.3-0.7-0.3-1,0l-1,1c-0.3,0.3-0.3,0.7,0,1l1.1,1.1c-0.2,0.3-0.3,0.6-0.4,1H0.7
					C0.3,5.6,0,5.9,0,6.3v1.4c0,0.4,0.3,0.7,0.7,0.7h1.6C2.4,8.7,2.5,9,2.7,9.3l-1.2,1.2c-0.3,0.3-0.3,0.7,0,1l1,1
					c0.3,0.3,0.7,0.3,1,0l1.2-1.2c0.3,0.2,0.6,0.3,0.9,0.4v1.6c0,0.4,0.3,0.7,0.7,0.7h1.4c0.4,0,0.7-0.3,0.7-0.7v-1.6
					c0.3-0.1,0.7-0.2,1-0.4l1.1,1.1c0.3,0.3,0.7,0.3,1,0l1-1c0.3-0.3,0.3-0.7,0-1l-1.1-1.1c0.2-0.3,0.3-0.6,0.4-1h1.6
					c0.4,0,0.7-0.3,0.7-0.7V6.3C14,5.9,13.7,5.6,13.3,5.6z M7,9.8C5.5,9.8,4.2,8.5,4.2,7S5.5,4.2,7,4.2S9.8,5.5,9.8,7S8.5,9.8,7,9.8
					z"/>
			</g>
		</g>
	</g>
</g>
</svg>
